resources/svg/major-incoming.svg

<svg xmlns="http://www.w3.org/2000/svg" viewBox="0 0 20 20" fill="currentColor"><path d="M17.5 6a1.5 1.5 0 0 1 1.5 1.5v10a1.5 1.5 0 0 1-1.5 1.5h-15a1.5 1.5 0 0 1-1.5-1.5v-10a1.5 1.5 0 0 1 1.5-1.5h4.5v2h-4v9h14v-9h-4v-2h4.5z"/><path d="M1 2a1 1 0 0 1 0-2h5c2.757 0 5 2.243 5 5v6.586l1.293-1.293a1 1 0 0 1 1.414 1.414l-3 3a.998.998 0 0 1-1.414 0l-3-3a1 1 0 1 1 1.414-1.414l1.293 1.293v-6.586c0-1.654-1.346-3-3-3h-5z"/></svg>

<svg xmlns="http://www.w3.org/2000/svg" viewBox="0 0 20 20" fill="currentColor"><path d="M17.5 6A1.5 1.5 0 0119 7.5v10a1.5 1.5 0 01-1.5 1.5h-15A1.5 1.5 0 011 17.5v-10A1.5 1.5 0 012.5 6H7v2H3v9h14V8h-4V6h4.5z" fill="#5C5F62"/><path d="M1 2a1 1 0 010-2h5c2.757 0 5 2.243 5 5v6.586l1.293-1.293a1 1 0 011.414 1.414l-3 3a.998.998 0 01-1.414 0l-3-3a1 1 0 111.414-1.414L9 11.586V5c0-1.654-1.346-3-3-3H1z" fill="#5C5F62"/></svg>
